remix/Media/play-circle-line.svg

<svg viewBox="0 0 24 24" fill="currentColor" xmlns="http://www.w3.org/2000/svg"><path d="M12 22C6.47715 22 2 17.5228 2 12C2 6.47715 6.47715 2 12 2C17.5228 2 22 6.47715 22 12C22 17.5228 17.5228 22 12 22ZM12 20C16.4183 20 20 16.4183 20 12C20 7.58172 16.4183 4 12 4C7.58172 4 4 7.58172 4 12C4 16.4183 7.58172 20 12 20ZM10.6219 8.41459L15.5008 11.6672C15.6846 11.7897 15.7343 12.0381 15.6117 12.2219C15.5824 12.2658 15.5447 12.3035 15.5008 12.3328L10.6219 15.5854C10.4381 15.708 10.1897 15.6583 10.0672 15.4745C10.0234 15.4088 10 15.3316 10 15.2526V8.74741C10 8.52649 10.1791 8.34741 10.4 8.34741C10.479 8.34741 10.5562 8.37078 10.6219 8.41459Z"/></svg>

<svg viewBox="0 0 24 24" xmlns="http://www.w3.org/2000/svg"><path fill="none" d="M0 0h24v24H0Z"/><path d="M12 22C6.477 22 2 17.523 2 12 2 6.477 6.477 2 12 2c5.523 0 10 4.477 10 10s-4.477 10-10 10Zm0-2v0c4.41 0 8-3.59 8-8 0-4.42-3.59-8-8-8v0c-4.42 0-8 3.58-8 8 0 4.41 3.58 8 8 8ZM10.62 8.41l4.87 3.25v0c.18.12.23.37.11.55 -.03.04-.07.08-.12.11l-4.88 3.25v0c-.19.12-.44.07-.56-.12 -.05-.07-.07-.15-.07-.22V8.72v0c0-.23.17-.4.4-.4 .07 0 .15.02.22.06Z"/></svg>
